X:4892
L:1/8
Q:3/8=80
M:9/8
K:Ador
|: A/B/ | cec BdB AGE | cec BdB A2 A/B/ | cec BdB AGE | GFG EA^G A2 :: A/B/ | cde geg dBG | 
"^NB1" c/d/ef geg a2 b/a/ | gee dec Bcd | BAA EA^G A2 :|

